X: 19039
T: Invercald's Rant
R: strathspey
M: 4/4
K: Adorian
B>A|:D<D E>G A>G EG|D<D E>G c3e|d<B g>B A>G E<G|D<D E>G A3B:|
|:c>A B>G A<G E>G|c>B c>d ef g<e|d<B g>B A>G E<G|D<D E>G A3B:|

